images_elementary_svg/cmd/32/loadbasic.svg

<svg height="32" viewBox="0 0 32.000961 32" width="32.001" xmlns="http://www.w3.org/2000/svg" xmlns:xlink="http://www.w3.org/1999/xlink"><linearGradient id="a" gradientUnits="userSpaceOnUse" x1="19.539" x2="29.109" y1="6.633" y2="13.274"><stop offset="0" stop-color="#cd9ef7"/><stop offset="1" stop-color="#a56de2"/></linearGradient><linearGradient id="b" gradientTransform="matrix(0 -.59172 -.63517 0 32.785 29.686)" gradientUnits="userSpaceOnUse" x1="38.941" x2="20.576" y1="15.991" y2="15.991"><stop offset="0" stop-color="#fff"/><stop offset=".512" stop-color="#fff" stop-opacity=".235"/><stop offset=".585" stop-color="#fff" stop-opacity=".157"/><stop offset="1" stop-color="#fff" stop-opacity=".392"/></linearGradient><linearGradient id="c"><stop offset="0"/><stop offset="1" stop-opacity="0"/></linearGradient><linearGradient id="d" gradientTransform="matrix(.89186 0 0 .86793 3.12 9.575)" gradientUnits="userSpaceOnUse" x1="27.335" x2="27.335" y1="7.403" y2="21.229"><stop offset="0" stop-color="#fff"/><stop offset=".003" stop-color="#fff" stop-opacity=".235"/><stop offset=".99" stop-color="#fff" stop-opacity=".157"/><stop offset="1" stop-color="#fff" stop-opacity=".392"/></linearGradient><linearGradient id="e" gradientTransform="matrix(.05114 0 0 .01592 -2.49 21.3)" gradientUnits="userSpaceOnUse" x1="302.857" x2="302.857" y1="366.648" y2="609.505"><stop offset="0" stop-opacity="0"/><stop offset=".5"/><stop offset="1" stop-opacity="0"/></linearGradient><radialGradient id="f" cx="605.714" cy="486.648" gradientTransform="matrix(.01984 0 0 .01592 16.388 21.3)" gradientUnits="userSpaceOnUse" r="117.143" xlink:href="#c"/><radialGradient id="g" cx="605.714" cy="486.648" gradientTransform="matrix(-.01984 0 0 .01592 15.602 21.3)" gradientUnits="userSpaceOnUse" r="117.143" xlink:href="#c"/><linearGradient id="h" gradientUnits="userSpaceOnUse" x1="8.602" x2="8.602" y1="12.243" y2="14.1"><stop offset="0" stop-color="#f9f9f9"/><stop offset="1" stop-color="#d8d8d8"/></linearGradient><linearGradient id="i" gradientTransform="matrix(.50413 0 0 .49333 13.463 -35.114)" gradientUnits="userSpaceOnUse" x1="21.6" x2="21.6" y1="99.792" y2="132.016"><stop offset="0" stop-color="#b4cee1"/><stop offset="1" stop-color="#5d9fcd"/></linearGradient><linearGradient id="j" gradientTransform="matrix(.54384 0 0 .61466 3.27 5.09)" gradientUnits="userSpaceOnUse" x1="21.571" x2="21.571" y1="7.986" y2="34.017"><stop offset="0" stop-color="#fff"/><stop offset="0" stop-color="#fff" stop-opacity=".235"/><stop offset=".99" stop-color="#fff" stop-opacity=".157"/><stop offset="1" stop-color="#fff" stop-opacity=".392"/></linearGradient><path d="m4 6.5c-.433.005-.5.217-.5.635v1.365c-1.245 0-1-.002-1 .544v7.456h27v-7.456c0-.418-.347-.55-.78-.544h-14.22v-1.365c0-.418-.264-.64-.697-.635z" fill="none" opacity=".5" stroke="#7e8087" stroke-linecap="square" stroke-width=".992"/><path d="m4 7v2h-1v7h26v-7h-15v-2z" fill="url(#h)"/><path d="m4.5 7.5v2h-1v8h25v-8h-15v-2z" fill="none" stroke="url(#j)" stroke-linecap="round"/><path d="m3.648 27.135h24.694v3.865h-24.694z" fill="url(#e)" opacity=".3"/><path d="m28.342 27.135v3.865c1.022.007 2.47-.866 2.47-1.933s-1.14-1.932-2.47-1.932z" fill="url(#f)" opacity=".3"/><path d="m3.648 27.135v3.865c-1.022.007-2.47-.866-2.47-1.933s1.14-1.932 2.47-1.932z" fill="url(#g)" opacity=".3"/><g stroke-miterlimit="7" stroke-width=".964"><path d="m25.455 21.905c5.627-4.905 3.627-12.905-4.873-13.12v-4.142l-9 6.905 9 6.905v-4.11c4.947-.193 7.718 4.318 4.182 7.563z" display="block" fill="url(#a)" stroke="#7239b3" stroke-linejoin="round" stroke-opacity=".693" transform="matrix(-1 0 0 1 36.105 -4.16)"/><path d="m26.776 19.5c2.428-2.844.905-10.267-7.15-9.716l-.087-3.15-6.34 4.913 6.34 4.87v-2.902c7.71-.745 7.96 4.835 7.235 5.985z" display="block" fill="none" opacity=".53" stroke="url(#b)" transform="matrix(-1 0 0 1 36.105 -4.16)"/></g><path d="m.5 14.5 1.5 15h28l1.5-15z" fill="url(#i)" stroke="#248498" stroke-linejoin="round" stroke-opacity=".498"/><path d="m1.602 15.5 1.266 13h26.265l1.266-13z" fill="none" opacity=".5" stroke="url(#d)" stroke-linecap="round"/></svg>

<svg xmlns="http://www.w3.org/2000/svg" xmlns:xlink="http://www.w3.org/1999/xlink" height="32" viewBox="0 0 32.000961 32" width="32.001"><defs><linearGradient xlink:href="#a" id="h" x1="19.539" y1="6.633" x2="29.109" y2="13.274" gradientUnits="userSpaceOnUse"/><linearGradient id="a"><stop offset="0" stop-color="#cd9ef7"/><stop offset="1" stop-color="#a56de2"/></linearGradient><linearGradient id="i" gradientTransform="matrix(0 -.59172 -.63517 0 32.785 29.686)" gradientUnits="userSpaceOnUse" x1="38.941" x2="20.576" y1="15.991" y2="15.991"><stop offset="0" stop-color="#fff"/><stop offset=".512" stop-color="#fff" stop-opacity=".235"/><stop offset=".585" stop-color="#fff" stop-opacity=".157"/><stop offset="1" stop-color="#fff" stop-opacity=".392"/></linearGradient></defs><linearGradient id="b"><stop offset="0"/><stop offset="1" stop-opacity="0"/></linearGradient><linearGradient id="k" gradientTransform="matrix(.89186 0 0 .86793 3.12 9.575)" gradientUnits="userSpaceOnUse" x1="27.335" x2="27.335" y1="7.403" y2="21.229"><stop offset="0" stop-color="#fff"/><stop offset=".003" stop-color="#fff" stop-opacity=".235"/><stop offset=".99" stop-color="#fff" stop-opacity=".157"/><stop offset="1" stop-color="#fff" stop-opacity=".392"/></linearGradient><linearGradient id="e" gradientTransform="matrix(.05114 0 0 .01592 -2.49 21.3)" gradientUnits="userSpaceOnUse" x1="302.857" x2="302.857" y1="366.648" y2="609.505"><stop offset="0" stop-opacity="0"/><stop offset=".5"/><stop offset="1" stop-opacity="0"/></linearGradient><radialGradient id="f" cx="605.714" cy="486.648" gradientTransform="matrix(.01984 0 0 .01592 16.388 21.3)" gradientUnits="userSpaceOnUse" r="117.143" xlink:href="#b"/><radialGradient id="g" cx="605.714" cy="486.648" gradientTransform="matrix(-.01984 0 0 .01592 15.602 21.3)" gradientUnits="userSpaceOnUse" r="117.143" xlink:href="#b"/><linearGradient id="c" gradientUnits="userSpaceOnUse" x1="8.602" x2="8.602" y1="12.243" y2="14.1"><stop offset="0" stop-color="#f9f9f9"/><stop offset="1" stop-color="#d8d8d8"/></linearGradient><linearGradient id="j" gradientTransform="matrix(.50413 0 0 .49333 13.463 -35.114)" gradientUnits="userSpaceOnUse" x1="21.6" x2="21.6" y1="99.792" y2="132.016"><stop offset="0" stop-color="#b4cee1"/><stop offset="1" stop-color="#5d9fcd"/></linearGradient><linearGradient id="d" gradientTransform="matrix(.54384 0 0 .61466 3.27 5.09)" gradientUnits="userSpaceOnUse" x1="21.571" x2="21.571" y1="7.986" y2="34.017"><stop offset="0" stop-color="#fff"/><stop offset="0" stop-color="#fff" stop-opacity=".235"/><stop offset=".99" stop-color="#fff" stop-opacity=".157"/><stop offset="1" stop-color="#fff" stop-opacity=".392"/></linearGradient><path d="M4 6.5c-.433.005-.5.217-.5.635V8.5c-1.245 0-1-.002-1 .544V16.5h27V9.044c0-.418-.347-.55-.78-.544H14.5V7.135c0-.418-.264-.64-.697-.635z" fill="none" opacity=".5" stroke="#7e8087" stroke-linecap="square" stroke-width=".992"/><path d="M4 7v2H3v7h26V9H14V7z" fill="url(#c)"/><path d="M4.5 7.5v2h-1v8h25v-8h-15v-2z" fill="none" stroke="url(#d)" stroke-linecap="round"/><path d="M3.648 27.135h24.694V31H3.648z" fill="url(#e)" opacity=".3"/><path d="M28.342 27.135V31c1.022.007 2.47-.866 2.47-1.933s-1.14-1.932-2.47-1.932z" fill="url(#f)" opacity=".3"/><path d="M3.648 27.135V31c-1.022.007-2.47-.866-2.47-1.933s1.14-1.932 2.47-1.932z" fill="url(#g)" opacity=".3"/><g stroke-miterlimit="7" stroke-width=".964"><path d="M25.455 21.905C31.082 17 29.082 9 20.582 8.785V4.643l-9 6.905 9 6.905v-4.11c4.947-.193 7.718 4.318 4.182 7.563z" display="block" fill="url(#h)" stroke="#7239b3" stroke-linejoin="round" stroke-opacity=".693" transform="matrix(-1 0 0 1 36.105 -4.16)"/><path d="M26.776 19.5c2.428-2.844.905-10.267-7.15-9.716l-.087-3.15-6.34 4.913 6.34 4.87v-2.902c7.71-.745 7.96 4.835 7.235 5.985z" display="block" opacity=".53" fill="none" stroke="url(#i)" transform="matrix(-1 0 0 1 36.105 -4.16)"/></g><path d="M.5 14.5l1.5 15h28l1.5-15z" fill="url(#j)" stroke="#248498" stroke-linejoin="round" stroke-opacity=".498"/><path d="M1.602 15.5l1.266 13h26.265l1.266-13z" fill="none" opacity=".5" stroke="url(#k)" stroke-linecap="round"/></svg>
